X:1
T:Union Street Bridge
T:Union Street Bridge
T:Alexander Walker
C:Alexander Walker
L:1/8
M:4/4
K:F#min
V:1 treble 
V:1
 E | C>FA>F c>F A/G/F/E/ | B,>EG>E B>E G/F/E/B,/ | C>FA>F c>FA>B | c>eB>G F/F/F F :| G | %6
 F>f a/g/f/d/ e>EG>B | C>FA>F c>FA>F | f>ge>f c>e G>B | c>eB>G F/F/F Fe | c<FA>F B<EG>E | %11
 F>GA>B c2 (c<e) | f>ga>f g>ef>c | B>Ge>G F/F/F F || %14

